svg/Outline/cloud-off.svg

<svg viewBox="0 0 24 24" xmlns="http://www.w3.org/2000/svg" width="24" height="24"><path d="M21.46 1.26a.9.9 0 0 1 1.28 1.28l-20.2 20.2-.07.06a.9.9 0 0 1-1.27-1.27l.06-.07zm-3 7.46q.1.37.17.75a5.6 5.6 0 0 1 2.4 1.02 4.2 4.2 0 0 1 1.68 3.43c0 1.5-.57 2.68-1.55 3.46a5.6 5.6 0 0 1-3.49 1.08H8.72l1.8-1.8h7.15c1 0 1.82-.25 2.36-.68.52-.41.88-1.05.88-2.06 0-.93-.4-1.56-.97-2-.6-.45-1.4-.7-2.15-.74a.9.9 0 0 1-.81-.65l-.04-.16-.01-.12zm-6.57-5.29c1.53 0 2.95.5 4.1 1.4l-1.3 1.29a5 5 0 0 0-2.8-.9 4.6 4.6 0 0 0-4.44 3.34.9.9 0 0 1-.77.63c-1.09.11-2.05.5-2.73 1.12a3.4 3.4 0 0 0-1.09 2.62c0 1.38.72 2.53 1.85 3.17l-1.3 1.3a5.3 5.3 0 0 1-2.35-4.47c0-1.67.64-3 1.68-3.95.88-.8 2-1.29 3.19-1.5a6.4 6.4 0 0 1 5.96-4.05"/></svg>

<svg viewBox="0 0 24 24" xmlns="http://www.w3.org/2000/svg" width="24" height="24"><path d="M21.46 1.26A.9 .9 0 0 1 22.74 2.54L2.47 22.8A.9 .9 0 0 1 1.2 21.53L1.26 21.46ZM18.46 8.72Q18.56 9.09 18.63 9.47A5.6 5.6 0 0 1 21.03 10.49A4.2 4.2 0 0 1 22.71 13.92C22.71 15.42 22.14 16.6 21.16 17.38A5.6 5.6 0 0 1 17.67 18.46L8.72 18.46L10.52 16.66L17.67 16.66C18.67 16.66 19.49 16.41 20.03 15.98C20.55 15.57 20.91 14.93 20.91 13.92C20.91 12.99 20.51 12.36 19.94 11.92C19.34 11.47 18.54 11.22 17.79 11.18A.9 .9 0 0 1 16.98 10.53L16.93 10.25ZM11.89 3.43c1.53 0 2.95.5 4.1 1.4l-1.3 1.29a5 5 0 0 0-2.8-.9 4.6 4.6 0 0 0-4.44 3.34.9.9 0 0 1-.77.63c-1.09.11-2.05.5-2.73 1.12a3.4 3.4 0 0 0-1.09 2.62c0 1.38.72 2.53 1.85 3.17l-1.3 1.3a5.3 5.3 0 0 1-2.35-4.47c0-1.67.64-3 1.68-3.95.88-.8 2-1.29 3.19-1.5a6.4 6.4 0 0 1 5.96-4.05"/></svg>
